X: 14910
T: Gathering Storms, The
R: reel
M: 4/4
K: Dminor
D3 E FEDC|DF F/F/F GFEG|fedf edc^c|dAdf e3
f|gc c/c/c gcac|gc c/c/c edc^c|dcAG FEDC|FEDC D3 z:|
Fc c/c/c d2 cd|fedc cddf|ec c/c/c gcac|gc c/c/c g2
fg|d'd d/d/d eA A/A/A|aged c3 ^c|dcAG FEDC|FEDC D3 z:|

